file/weather-channel.svg

<svg clip-rule="evenodd" fill-rule="evenodd" stroke-linejoin="round" stroke-miterlimit="1.41421" viewBox="0 0 560 400" xmlns="http://www.w3.org/2000/svg"><g transform="matrix(.9 0 0 .9 145 64.991)"><path d="m0 0h300v300.02h-300z" fill="#014f9d" fill-rule="nonzero"/><path d="m71.641 76.31-10.324 2.41c.458 1.598.766 5.185.766 8.811v44.598h10.24v-27.646c2.252-2.047 5.476-3.543 7.97-3.543 2.878 0 3.924 1.431 3.924 5.271v25.918h9.867v-26.965c0-3.709-.214-4.991-.97-7.168-1.215-3.392-5.13-5.502-10.025-5.502-3.925 0-8.289 1.673-10.924 4.158 0-.457.158-2.048.158-3.244v-7.689c0-3.691-.233-7.297-.682-9.408zm-52.555 3.461v8.744h12.791v43.607h10.707v-43.607h12.502l1.729-8.744zm98.634 12.945c-5.13 0-8.971 1.664-12.129 5.215-3.401 3.765-4.82 8.353-4.82 15.305 0 12.1 7.146 19.939 18.229 19.939 5.41 0 10.082-1.728 14.539-5.334l-3.924-6.037c-3.093 2.569-6.336 3.839-9.793 3.839-5.195 0-8.119-3.382-8.119-9.334v-.308h22.285v-2.336c0-8.064-1.58-13.249-5.112-16.865-2.504-2.56-6.727-4.084-11.156-4.084zm.148 7.393c2.028 0 3.459.765 4.44 2.269.897 1.42 1.205 2.934 1.205 5.793v.449h-11.68v-.14c0-5.345 2.195-8.372 6.035-8.372zm74.49 45.51-10.316 2.412c.449 1.597.748 5.195.748 8.82v44.588h10.25v-27.639c2.243-2.046 5.486-3.551 7.981-3.551 2.868 0 3.914 1.44 3.914 5.262v25.928h9.857v-26.975c0-3.691-.223-4.963-.97-7.168-1.206-3.373-5.122-5.494-10.018-5.494-3.925 0-8.278 1.663-10.922 4.148 0-.439.158-2.028.158-3.242v-7.68c0-3.691-.243-7.289-.682-9.41zm-173.65 3.46 12.512 52.803h11.969l4.364-21.453c1.598-7.69 2.504-15.062 2.504-15.062.13 1.421.897 8.194 2.466 15.201l4.682 21.314h11.521l12.65-52.803h-11.072l-4.306 19.88c-1.056 5.13-2.709 15.753-2.85 17.416 0 0-1.28-8.969-2.252-13.865l-4.841-23.436h-11.529l-4.662 21.174c-1.58 7.223-2.487 14.689-2.702 16.717 0 0-.681-7.448-2.793-17.25l-4.513-20.641h-11.156zm150.54 2.122-10.25 2.558c-.373 2.85-.373 5.355-.373 9.111h-3.839v6.915h3.839v20.949c0 3.522.074 4.278.672 5.951 1.206 3.401 5.28 5.652 10.4 5.652 2.635 0 5.26-.531 8.203-1.746l-1.279-6.008c-1.803.514-2.711.746-3.617.746-3.467 0-4.363-1.279-4.363-6.176v-19.369h6.476l2.569-6.914h-9.045c0-3.924.224-8.147.607-11.67zm98.533 10.76-9.035 2.429c.832 2.177 1.43 6.102 1.43 11.287v25.77h10.109v-27.273c1.859-2.186 3.905-3.232 6.176-3.232 1.121 0 1.936.223 2.935.746l2.774-8.895c-1.579-.682-2.26-.832-3.774-.832-1.121 0-2.467.243-3.299.608-1.896.841-4.289 2.943-5.728 4.896-.159-2.168-.682-3.915-1.588-5.504zm-131.52.082c-3.541 0-6.782.671-10.539 2.269-2.728 1.112-4.215 1.859-6.261 3.148l4.299 7.252c4.139-2.793 7.913-4.392 11.146-4.392 3.69 0 4.503 1.439 4.503 5.719v1.588c-.812-.066-1.495-.065-2.252-.065-12.268 0-18.52 4.205-18.52 13.25 0 7.681 4.664 12.053 13.27 12.053 3.149 0 5.859-.756 7.737-2.101.757-.533 1.579-1.309 2.336-2.047.981 1.971 3.091 3.69 5.427 4.672l5.346-6.176c-2.943-2.196-3.607-3.767-3.607-7.897v-.672l.214-12.971c.075-4.158-.148-5.352-.662-6.931-1.513-4.289-5.971-6.699-12.438-6.699zm-38.477.004c-5.12 0-8.952 1.652-12.129 5.203-3.382 3.765-4.812 8.344-4.812 15.287 0 12.119 7.158 19.959 18.221 19.959 5.429 0 10.101-1.73 14.549-5.336l-3.926-6.045c-3.093 2.56-6.315 3.84-9.791 3.84-5.186 0-8.129-3.382-8.129-9.325v-.328h22.303v-2.316c0-8.045-1.578-13.259-5.138-16.885-2.477-2.551-6.699-4.055-11.146-4.055zm139.14 0c-5.12 0-8.961 1.652-12.129 5.203-3.382 3.765-4.812 8.344-4.812 15.287 0 12.119 7.158 19.959 18.221 19.959 5.429 0 10.101-1.73 14.539-5.336l-3.916-6.045c-3.093 2.56-6.334 3.84-9.801 3.84-5.195 0-8.129-3.382-8.129-9.325v-.328h22.295v-2.316c0-8.045-1.579-13.259-5.111-16.885-2.495-2.551-6.709-4.055-11.156-4.055zm-138.98 7.371c2.037 0 3.458.757 4.457 2.271.897 1.43 1.196 2.934 1.196 5.793v.447h-11.67v-.138c0-5.345 2.168-8.373 6.017-8.373zm139.13 0c2.028 0 3.467.757 4.448 2.271.897 1.43 1.207 2.934 1.207 5.793v.447h-11.682v-.138c0-5.345 2.187-8.373 6.027-8.373zm-98.244 15.143h.448l-.159 8.287c-1.504 1.644-3.381 2.636-5.259 2.636-2.57 0-4.467-2.038-4.467-5.046 0-4.588 2.42-5.877 9.437-5.877zm-64.91 31.539-10.336 2.41c.449 1.588.758 5.197.758 8.822v44.588h10.24v-27.639c2.252-2.046 5.505-3.541 7.99-3.541 2.86 0 3.905 1.429 3.905 5.26v25.92h9.877v-26.957c0-3.71-.224-4.97-.99-7.166-1.215-3.392-5.113-5.504-10.018-5.504-3.916 0-8.287 1.663-10.912 4.158 0-.458.148-2.046.148-3.252v-7.662c0-3.709-.232-7.316-.662-9.437zm196.04.08-10.314 2.338c.374 3.475.514 6.567.514 11.604v28.779c0 5.494.15 6.699.916 8.642 1.215 3.252 4.661 5.28 8.969 5.28 2.177 0 4.281-.375 6.01-1.047l-1.729-6.026c-.523.14-.74.141-1.123.141-.822 0-1.662-.384-2.045-1.047-.588-1.056-.664-1.963-.664-8.588v-30.059c0-5.401-.159-7.906-.533-10.018zm-225.71 2.261c-8.437 0-15.968 4.523-20.051 12.129-2.392 4.513-3.531 9.718-3.531 16.268 0 7.69 2.111 14.017 6.334 18.754 4.289 4.906 9.868 7.223 17.1 7.223 5.962 0 10.39-1.504 14.539-4.887l-4.822-6.617c-3.084 2.476-5.887 3.373-8.961 3.373-4.532 0-7.988-2.027-10.1-5.877-1.588-2.859-2.178-6.858-2.178-14.006 0-6.092.906-10.474 2.934-13.482 1.878-2.794 5.336-4.514 8.887-4.514 2.934 0 5.719.981 8.363 2.934l4.736-7.14c-2.869-2.485-8.065-4.148-13.26-4.148zm106.37 13.93-8.951 2.559c.897 2.57 1.326 5.728 1.326 9.045v27.947h10.102v-27.264c2.355-2.093 4.981-3.467 7.008-3.467 2.635 0 3.391 1.279 3.391 5.643v25.088h9.951v-28.17c0-2.411-.233-4.065-.766-5.494-1.196-3.327-4.961-5.579-9.259-5.579-2.262 0-4.897.599-6.924 1.645-1.663.916-2.943 1.83-4.438 2.867 0-1.579-.533-3.241-1.439-4.82zm39.328 0-8.978 2.559c.897 2.57 1.344 5.728 1.344 9.045v27.947h10.102v-27.264c2.326-2.093 4.97-3.467 6.998-3.467 2.635 0 3.392 1.279 3.392 5.643v25.088h9.942v-28.17c0-2.411-.207-4.065-.758-5.494-1.196-3.327-4.969-5.579-9.268-5.579-2.233 0-4.877.599-6.923 1.645-1.645.916-2.936 1.83-4.44 2.867 0-1.579-.522-3.241-1.41-4.82zm-69.129.151c-3.55 0-6.783.672-10.549 2.269-2.709 1.122-4.223 1.861-6.269 3.151l4.309 7.24c4.13-2.794 7.894-4.381 11.137-4.381 3.7 0 4.531 1.429 4.531 5.736v1.571c-.832-.075-1.513-.077-2.26-.077-12.278 0-18.539 4.225-18.539 13.27 0 7.672 4.673 12.043 13.26 12.043 3.168 0 5.876-.737 7.764-2.101.747-.533 1.579-1.281 2.336-2.047.971 1.962 3.084 3.7 5.419 4.681l5.354-6.185c-2.943-2.186-3.615-3.756-3.615-7.904v-.674l.215-12.969c.093-4.121-.149-5.344-.682-6.914-1.495-4.308-5.954-6.709-12.41-6.709zm115.87.006c-5.12 0-8.961 1.643-12.129 5.203-3.382 3.756-4.812 8.354-4.812 15.297 0 12.11 7.148 19.949 18.221 19.949 5.429 0 10.091-1.73 14.539-5.346l-3.924-6.035c-3.083 2.56-6.317 3.85-9.783 3.85-5.195 0-8.139-3.401-8.139-9.334v-.309h22.295v-2.336c0-8.045-1.58-13.251-5.121-16.857-2.476-2.57-6.708-4.082-11.146-4.082zm.141 7.371c2.046 0 3.474.767 4.455 2.271.907 1.43 1.197 2.944 1.197 5.803v.447h-11.67v-.138c0-5.354 2.187-8.383 6.018-8.383zm-113.46 15.133h.467l-.158 8.287c-1.505 1.672-3.384 2.644-5.272 2.644-2.569 0-4.428-2.026-4.428-5.044 0-4.579 2.393-5.887 9.391-5.887z" fill="#fff"/></g></svg>

<?xml version="1.0" encoding="UTF-8" standalone="no"?>
<!DOCTYPE svg PUBLIC "-//W3C//DTD SVG 1.1//EN" "http://www.w3.org/Graphics/SVG/1.1/DTD/svg11.dtd">
<svg width="100%" height="100%" viewBox="0 0 560 400" version="1.1" xmlns="http://www.w3.org/2000/svg" xmlns:xlink="http://www.w3.org/1999/xlink" xml:space="preserve" xmlns:serif="http://www.serif.com/" style="fill-rule:evenodd;clip-rule:evenodd;stroke-linejoin:round;stroke-miterlimit:1.41421;">
    <g transform="matrix(0.9,0,0,0.9,145,64.991)">
        <rect id="path6" x="0" y="0" width="300" height="300.02" style="fill:rgb(1,79,157);fill-rule:nonzero;"/>
        <path id="path8" d="M71.641,76.31L61.317,78.72C61.775,80.318 62.083,83.905 62.083,87.531L62.083,132.129L72.323,132.129L72.323,104.483C74.575,102.436 77.799,100.94 80.293,100.94C83.171,100.94 84.217,102.371 84.217,106.211L84.217,132.129L94.084,132.129L94.084,105.164C94.084,101.455 93.87,100.173 93.114,97.996C91.899,94.604 87.984,92.494 83.089,92.494C79.164,92.494 74.8,94.167 72.165,96.652C72.165,96.195 72.323,94.604 72.323,93.408L72.323,85.719C72.323,82.028 72.09,78.422 71.641,76.311L71.641,76.31ZM19.086,79.771L19.086,88.515L31.877,88.515L31.877,132.122L42.584,132.122L42.584,88.515L55.086,88.515L56.815,79.771L19.086,79.771L19.086,79.771ZM117.72,92.716C112.59,92.716 108.749,94.38 105.591,97.931C102.19,101.696 100.771,106.284 100.771,113.236C100.771,125.336 107.917,133.175 119,133.175C124.41,133.175 129.082,131.447 133.539,127.841L129.615,121.804C126.522,124.373 123.279,125.643 119.822,125.643C114.627,125.643 111.703,122.261 111.703,116.309L111.703,116.001L133.988,116.001L133.988,113.665C133.988,105.601 132.408,100.416 128.876,96.8C126.372,94.24 122.149,92.716 117.72,92.716L117.72,92.716ZM117.868,100.109C119.896,100.109 121.327,100.874 122.308,102.378C123.205,103.798 123.513,105.312 123.513,108.171L123.513,108.62L111.833,108.62L111.833,108.48C111.833,103.135 114.028,100.108 117.868,100.108L117.868,100.109ZM192.358,145.619L182.042,148.031C182.491,149.628 182.79,153.226 182.79,156.851L182.79,201.439L193.04,201.439L193.04,173.8C195.283,171.754 198.526,170.249 201.021,170.249C203.889,170.249 204.935,171.689 204.935,175.511L204.935,201.439L214.792,201.439L214.792,174.464C214.792,170.773 214.569,169.501 213.822,167.296C212.616,163.923 208.7,161.802 203.804,161.802C199.879,161.802 195.526,163.465 192.882,165.95C192.882,165.511 193.04,163.922 193.04,162.708L193.04,155.028C193.04,151.337 192.797,147.739 192.358,145.618L192.358,145.619ZM18.708,149.079L31.22,201.882L43.189,201.882L47.553,180.429C49.151,172.739 50.057,165.367 50.057,165.367C50.187,166.788 50.954,173.561 52.523,180.568L57.205,201.882L68.726,201.882L81.376,149.079L70.304,149.079L65.998,168.959C64.942,174.089 63.289,184.712 63.148,186.375C63.148,186.375 61.868,177.406 60.896,172.51L56.055,149.074L44.526,149.074L39.864,170.248C38.284,177.471 37.377,184.937 37.162,186.965C37.162,186.965 36.481,179.517 34.369,169.715L29.856,149.074L18.7,149.074L18.708,149.079ZM169.248,151.201L158.998,153.759C158.625,156.609 158.625,159.114 158.625,162.87L154.786,162.87L154.786,169.785L158.625,169.785L158.625,190.734C158.625,194.256 158.699,195.012 159.297,196.685C160.503,200.086 164.577,202.337 169.697,202.337C172.332,202.337 174.957,201.806 177.9,200.591L176.621,194.583C174.818,195.097 173.91,195.329 173.004,195.329C169.537,195.329 168.641,194.05 168.641,189.153L168.641,169.784L175.117,169.784L177.686,162.87L168.641,162.87C168.641,158.946 168.865,154.723 169.248,151.2L169.248,151.201ZM267.781,161.961L258.746,164.39C259.578,166.567 260.176,170.492 260.176,175.677L260.176,201.447L270.285,201.447L270.285,174.174C272.144,171.988 274.19,170.942 276.461,170.942C277.582,170.942 278.397,171.165 279.396,171.688L282.17,162.793C280.591,162.111 279.91,161.961 278.396,161.961C277.275,161.961 275.929,162.204 275.097,162.569C273.201,163.41 270.808,165.512 269.369,167.465C269.21,165.297 268.687,163.55 267.781,161.961L267.781,161.961ZM136.261,162.043C132.72,162.043 129.479,162.714 125.722,164.312C122.994,165.424 121.507,166.171 119.461,167.46L123.76,174.712C127.899,171.919 131.673,170.32 134.906,170.32C138.596,170.32 139.409,171.759 139.409,176.039L139.409,177.627C138.597,177.561 137.914,177.562 137.157,177.562C124.889,177.562 118.637,181.767 118.637,190.812C118.637,198.493 123.301,202.865 131.907,202.865C135.056,202.865 137.766,202.109 139.644,200.764C140.401,200.231 141.223,199.455 141.98,198.717C142.961,200.688 145.071,202.407 147.407,203.389L152.753,197.213C149.81,195.017 149.146,193.446 149.146,189.316L149.146,188.644L149.36,175.673C149.435,171.515 149.212,170.321 148.698,168.742C147.185,164.453 142.727,162.043 136.26,162.043L136.261,162.043ZM97.784,162.047C92.664,162.047 88.832,163.699 85.655,167.25C82.273,171.015 80.843,175.594 80.843,182.537C80.843,194.656 88.001,202.496 99.064,202.496C104.493,202.496 109.165,200.766 113.613,197.16L109.687,191.115C106.594,193.675 103.372,194.955 99.896,194.955C94.71,194.955 91.767,191.573 91.767,185.63L91.767,185.302L114.07,185.302L114.07,182.986C114.07,174.941 112.492,169.727 108.932,166.101C106.455,163.55 102.233,162.046 97.786,162.046L97.784,162.047ZM236.924,162.047C231.804,162.047 227.963,163.699 224.795,167.25C221.413,171.015 219.983,175.594 219.983,182.537C219.983,194.656 227.141,202.496 238.204,202.496C243.633,202.496 248.305,200.766 252.743,197.16L248.827,191.115C245.734,193.675 242.493,194.955 239.026,194.955C233.831,194.955 230.897,191.573 230.897,185.63L230.897,185.302L253.192,185.302L253.192,182.986C253.192,174.941 251.613,169.727 248.081,166.101C245.586,163.55 241.372,162.046 236.925,162.046L236.924,162.047ZM97.944,169.418C99.981,169.418 101.402,170.175 102.401,171.689C103.298,173.119 103.597,174.623 103.597,177.482L103.597,177.929L91.927,177.929L91.927,177.791C91.927,172.446 94.095,169.418 97.944,169.418L97.944,169.418ZM237.074,169.418C239.102,169.418 240.541,170.175 241.522,171.689C242.419,173.119 242.729,174.623 242.729,177.482L242.729,177.929L231.047,177.929L231.047,177.791C231.047,172.446 233.234,169.418 237.074,169.418L237.074,169.418ZM138.83,184.561L139.278,184.561L139.119,192.848C137.615,194.492 135.738,195.484 133.86,195.484C131.29,195.484 129.393,193.446 129.393,190.438C129.393,185.85 131.813,184.561 138.83,184.561L138.83,184.561ZM73.92,216.1L63.584,218.51C64.033,220.098 64.342,223.707 64.342,227.332L64.342,271.92L74.582,271.92L74.582,244.281C76.834,242.235 80.087,240.74 82.572,240.74C85.432,240.74 86.477,242.169 86.477,246L86.477,271.92L96.354,271.92L96.354,244.963C96.354,241.253 96.13,239.993 95.364,237.797C94.149,234.405 90.251,232.293 85.346,232.293C81.43,232.293 77.059,233.956 74.434,236.451C74.434,235.993 74.582,234.405 74.582,233.199L74.582,225.537C74.582,221.828 74.35,218.221 73.92,216.1L73.92,216.1ZM269.96,216.18L259.646,218.518C260.02,221.993 260.16,225.085 260.16,230.122L260.16,258.901C260.16,264.395 260.31,265.6 261.076,267.543C262.291,270.795 265.737,272.823 270.045,272.823C272.222,272.823 274.326,272.448 276.055,271.776L274.326,265.75C273.803,265.89 273.586,265.891 273.203,265.891C272.381,265.891 271.541,265.507 271.158,264.844C270.57,263.788 270.494,262.881 270.494,256.256L270.494,226.197C270.494,220.796 270.335,218.291 269.961,216.179L269.96,216.18ZM44.25,218.441C35.813,218.441 28.282,222.964 24.199,230.57C21.807,235.083 20.668,240.288 20.668,246.838C20.668,254.528 22.779,260.855 27.002,265.592C31.291,270.498 36.87,272.815 44.102,272.815C50.064,272.815 54.492,271.311 58.641,267.928L53.819,261.311C50.735,263.787 47.932,264.684 44.858,264.684C40.326,264.684 36.87,262.657 34.758,258.807C33.17,255.948 32.58,251.949 32.58,244.801C32.58,238.709 33.486,234.327 35.514,231.319C37.392,228.525 40.85,226.805 44.401,226.805C47.335,226.805 50.12,227.786 52.764,229.739L57.5,222.599C54.631,220.114 49.435,218.451 44.24,218.451L44.25,218.441ZM150.62,232.371L141.669,234.93C142.566,237.5 142.995,240.658 142.995,243.975L142.995,271.922L153.097,271.922L153.097,244.658C155.452,242.565 158.078,241.191 160.105,241.191C162.74,241.191 163.496,242.47 163.496,246.834L163.496,271.922L173.447,271.922L173.447,243.752C173.447,241.341 173.214,239.687 172.681,238.258C171.485,234.931 167.72,232.679 163.422,232.679C161.16,232.679 158.525,233.278 156.498,234.324C154.835,235.24 153.555,236.154 152.06,237.191C152.06,235.612 151.527,233.95 150.621,232.371L150.62,232.371ZM189.948,232.371L180.97,234.93C181.867,237.5 182.314,240.658 182.314,243.975L182.314,271.922L192.416,271.922L192.416,244.658C194.742,242.565 197.386,241.191 199.414,241.191C202.049,241.191 202.806,242.47 202.806,246.834L202.806,271.922L212.748,271.922L212.748,243.752C212.748,241.341 212.541,239.687 211.99,238.258C210.794,234.931 207.021,232.679 202.722,232.679C200.489,232.679 197.845,233.278 195.799,234.324C194.154,235.24 192.863,236.154 191.359,237.191C191.359,235.612 190.837,233.95 189.949,232.371L189.948,232.371ZM120.819,232.522C117.269,232.522 114.036,233.194 110.27,234.791C107.561,235.913 106.047,236.652 104.001,237.942L108.31,245.182C112.44,242.388 116.204,240.801 119.447,240.801C123.147,240.801 123.978,242.23 123.978,246.537L123.978,248.108C123.146,248.033 122.465,248.031 121.718,248.031C109.44,248.031 103.179,252.256 103.179,261.301C103.179,268.973 107.852,273.344 116.439,273.344C119.607,273.344 122.315,272.607 124.203,271.243C124.95,270.71 125.782,269.962 126.539,269.196C127.51,271.158 129.623,272.896 131.958,273.877L137.312,267.692C134.369,265.506 133.697,263.936 133.697,259.788L133.697,259.114L133.912,246.145C134.005,242.024 133.763,240.801 133.23,239.231C131.735,234.923 127.276,232.522 120.82,232.522L120.819,232.522ZM236.689,232.528C231.569,232.528 227.728,234.171 224.56,237.731C221.178,241.487 219.748,246.085 219.748,253.028C219.748,265.138 226.896,272.977 237.969,272.977C243.398,272.977 248.06,271.247 252.508,267.631L248.584,261.596C245.501,264.156 242.267,265.446 238.801,265.446C233.606,265.446 230.662,262.045 230.662,256.112L230.662,255.803L252.957,255.803L252.957,253.467C252.957,245.422 251.377,240.216 247.836,236.61C245.36,234.04 241.128,232.528 236.69,232.528L236.689,232.528ZM236.83,239.899C238.876,239.899 240.304,240.666 241.285,242.17C242.192,243.6 242.482,245.114 242.482,247.973L242.482,248.42L230.812,248.42L230.812,248.282C230.812,242.928 232.999,239.899 236.83,239.899L236.83,239.899ZM123.37,255.032L123.837,255.032L123.679,263.319C122.174,264.991 120.295,265.963 118.407,265.963C115.838,265.963 113.979,263.937 113.979,260.919C113.979,256.34 116.372,255.032 123.37,255.032L123.37,255.032Z" style="fill:white;"/>
    </g>
</svg>
